src/assets/icons/svg/join_proposal.svg

<svg xmlns="http://www.w3.org/2000/svg" fill="none" viewBox="0 0 40 40" class="design-iconfont" width="128" height="128">
  <path fill="#0070FF" fill-opacity=".1" d="M20 0A20 20 0 1 0 20 40A20 20 0 1 0 20 0Z"></path>
  <path d="M28.3337 12.916H11.667V25.416H14.5837V27.4994L18.7503 25.416H28.3337V12.916Z" stroke="#0070FF" stroke-width="1.6" stroke-linecap="round" stroke-linejoin="round"></path>
  <path d="M22.917 16.666V17.0827" stroke="#0070FF" stroke-width="1.6" stroke-linecap="round" stroke-linejoin="round"></path>
  <path d="M17.083 16.666V17.0827" stroke="#0070FF" stroke-width="1.6" stroke-linecap="round" stroke-linejoin="round"></path>
  <path d="M22.9163 20.416C22.9163 20.416 22.083 22.0827 19.9997 22.0827C17.9163 22.0827 17.083 20.416 17.083 20.416" stroke="#0070FF" stroke-width="1.6" stroke-linecap="round" stroke-linejoin="round"></path>
</svg>

<svg xmlns="http://www.w3.org/2000/svg" width="128" height="128" fill="none" class="design-iconfont" viewBox="0 0 40 40"><path fill="#0070FF" fill-opacity=".1" d="M20 0a20 20 0 1 0 0 40 20 20 0 1 0 0-40Z"/><path stroke="#0070FF" stroke-linecap="round" stroke-linejoin="round" stroke-width="1.6" d="M28.334 12.916H11.667v12.5h2.917v2.083l4.166-2.083h9.584v-12.5Zm-5.417 3.75v.417m-5.834-.417v.417"/><path stroke="#0070FF" stroke-linecap="round" stroke-linejoin="round" stroke-width="1.6" d="M22.916 20.416s-.833 1.667-2.916 1.667c-2.084 0-2.917-1.667-2.917-1.667"/></svg>
